svgs/duotone/print-slash.svg

<svg xmlns="http://www.w3.org/2000/svg" viewBox="0 0 640 512"><!-- Font Awesome Pro 6.0.0-alpha2 by @fontawesome - https://fontawesome.com License - https://fontawesome.com/license (Commercial License) --><defs><style>.fa-secondary{opacity:.4}</style></defs><path d="M448 448H192V352H325.764L122.352 192.57C89.695 195.473 64 222.59 64 256V352C64 369.674 78.326 384 96 384H128V480C128 497.674 142.326 512 160 512H480C492.25 512 502.545 504.881 507.924 494.773L448 447.805V448ZM192 64H421.49L448 90.51V160H512V77.25C512 68.766 508.625 60.625 502.625 54.625L457.375 9.375C451.375 3.375 443.219 0 434.75 0H160C142.344 0 128 14.328 128 32V75.012L192 125.174V64ZM512 192H277.262L522.23 384H544C561.674 384 576 369.674 576 352V256C576 220.654 547.346 192 512 192ZM496 296C482.75 296 472 285.25 472 272C472 258.734 482.75 248 496 248S520 258.734 520 272C520 285.25 509.25 296 496 296Z" class="fa-secondary"/><path d="M634.874 502.805C626.749 513.211 611.686 515.086 601.186 506.883L9.189 42.89C-1.249 34.718 -3.061 19.625 5.126 9.187C9.845 3.156 16.907 0 24.032 0C29.189 0 34.407 1.672 38.814 5.109L630.811 469.102C641.249 477.274 643.061 492.367 634.874 502.805Z" class="fa-primary"/></svg>

<svg xmlns="http://www.w3.org/2000/svg" viewBox="0 0 640 512"><!--! Font Awesome Pro 6.3.0 by @fontawesome - https://fontawesome.com License - https://fontawesome.com/license (Commercial License) Copyright 2023 Fonticons, Inc. --><defs><style>.fa-secondary{opacity:.4}</style></defs><path class="fa-primary" d="M634.9 502.8c-8.125 10.41-23.19 12.28-33.69 4.078L9.188 42.89c-10.44-8.172-12.26-23.27-4.068-33.7C9.839 3.158 16.91 0 24.03 0c5.156 0 10.37 1.673 14.78 5.111l591.1 463.1C641.2 477.3 643.1 492.4 634.9 502.8z"/><path class="fa-secondary" d="M448 447.8L192 448v-96h133.8L122.4 192.6C89.7 195.5 64 222.6 64 256v96c0 17.67 14.33 32 32 32h32v96c0 17.67 14.33 32 32 32h320c12.25 0 22.54-7.119 27.92-17.23L448 447.8zM192 64h229.5L448 90.51V160h64V77.25c0-8.484-3.375-16.62-9.375-22.62l-45.25-45.25C451.4 3.375 443.2 0 434.8 0H160C142.3 0 128 14.33 128 32v43.01l64 50.16V64zM512 192H277.3l244.1 192H544c17.67 0 32-14.33 32-32V256C576 220.7 547.3 192 512 192zM496 296c-13.25 0-24-10.75-24-24c0-13.27 10.75-24 24-24s24 10.73 24 24C520 285.3 509.3 296 496 296z"/></svg>
